packages/ui-icons/src/Basic/16/CIS_16.svg

<svg xmlns="http://www.w3.org/2000/svg" viewBox="0 0 20 20"><path d="M10 2a8 8 0 1 0 8 8 8 8 0 0 0-8-8Zm0 15a7 7 0 1 1 7-7 7 7 0 0 1-7 7Zm1-9h1v4h-1v-1.43h-1V12H9V8h1v1.57h1Zm4 0v1h-1v3h-1V8h2ZM6.37 9.22a1.09 1.09 0 0 0 0 1.55 1.12 1.12 0 0 0 1.43.1l.6.8a2.1 2.1 0 0 1-2.74-3.15 2.14 2.14 0 0 1 2.74-.2l-.6.8a1.12 1.12 0 0 0-1.43.1Z"/></svg>

<svg id="ready" xmlns="http://www.w3.org/2000/svg" viewBox="0 0 20 20"><title>Megaicons_work_16_1.8_cp</title><path d="M10,2a8,8,0,1,0,8,8A8,8,0,0,0,10,2Zm0,15a7,7,0,1,1,7-7A7,7,0,0,1,10,17Zm1-9h1v4H11V10.57H10V12H9V8h1V9.57h1Zm4,0V9H14v3H13V8h2ZM6.37,9.22a1.09,1.09,0,0,0,0,1.55,1.12,1.12,0,0,0,1.43.1l.6.8A2.1,2.1,0,0,1,5.66,8.52,2.14,2.14,0,0,1,8.4,8.32l-.6.8A1.12,1.12,0,0,0,6.37,9.22Z"/></svg>
